icons/2_Variations/Sophos alt.svg

<svg width="1024" height="1024" viewBox="0 0 1024 1024" fill="none" xmlns="http://www.w3.org/2000/svg">
<g clip-path="url(#clip0_3_257)">
<path d="M512 1024C794.77 1024 1024 794.77 1024 512C1024 229.23 794.77 0 512 0C229.23 0 0 229.23 0 512C0 794.77 229.23 1024 512 1024Z" fill="#728DBE"/>
<path d="M560.1 658.901H390.7V600.601L560 601.301C576.7 601.301 590.3 587.701 590.3 571.001C590.3 554.301 576.7 540.701 560 540.701H466C417.6 540.701 378 501.101 378 452.701C378 404.301 417.6 364.801 466 364.801H635.3V423.101L466 422.401C449.3 422.401 435.7 436.001 435.7 452.701C435.7 469.401 449.3 483.001 466 483.001H560C608.4 483.001 647.9 522.601 647.9 571.001C648 619.301 608.4 658.901 560.1 658.901ZM256 285.801V609.501C256 643.201 274.3 674.201 303.7 690.601L511.8 806.201L720.2 690.501C749.7 674.101 768 643.101 768 609.401V285.801H256Z" fill="white"/>
</g>
<defs>
<clipPath id="clip0_3_257">
<rect width="1024" height="1024" fill="white"/>
</clipPath>
</defs>
</svg>

<svg width="1024" height="1024" fill="none" xmlns="http://www.w3.org/2000/svg"><g clip-path="url(#a)"><path d="M512 1024c282.77 0 512-229.23 512-512S794.77 0 512 0 0 229.23 0 512s229.23 512 512 512Z" fill="#728DBE"/><path d="M560.1 658.901H390.7v-58.3l169.3.7c16.7 0 30.3-13.6 30.3-30.3 0-16.7-13.6-30.3-30.3-30.3h-94c-48.4 0-88-39.6-88-88s39.6-87.9 88-87.9h169.3v58.3l-169.3-.7c-16.7 0-30.3 13.6-30.3 30.3 0 16.7 13.6 30.3 30.3 30.3h94c48.4 0 87.9 39.6 87.9 88 .1 48.3-39.5 87.9-87.8 87.9ZM256 285.801v323.7c0 33.7 18.3 64.7 47.7 81.1l208.1 115.6 208.4-115.7c29.5-16.4 47.8-47.4 47.8-81.1v-323.6H256Z" fill="#fff"/></g><defs><clipPath id="a"><path fill="#fff" d="M0 0h1024v1024H0z"/></clipPath></defs></svg>
